incomeartour/img/icons/palm.svg

<svg width="25" height="27" viewBox="0 0 25 27" fill="none" xmlns="http://www.w3.org/2000/svg">
<path d="M23.7742 10.0195C22.8555 8.5842 18.5624 7.9077 15.3127 7.82302C15.931 7.5485 16.3983 7.33162 16.3983 7.33162L15.2438 5.67201L17.7359 6.70533C17.7359 6.70533 18.0137 5.8981 21.8011 5.75935C23.2771 5.70499 19.7377 1.57616 16.7317 2.44578C16.1535 2.61305 13.613 4.34188 11.9757 5.90909C11.7139 3.53258 10.3963 0.641775 8.94017 0.945116C7.04645 1.34026 4.67854 2.01468 5.38921 2.83884C5.7701 3.28123 7.20421 5.35708 8.6508 6.87765C6.31498 6.03447 3.45627 5.3752 2.4583 6.01664C0.942784 6.99084 0.586558 9.94403 0.705102 10.9634C0.823646 11.9842 2.9298 8.48051 2.9298 8.48051L3.24146 11.1987C3.24146 11.1987 6.80015 11.0246 7.75622 10.8086C8.05808 10.7403 8.46035 10.6811 8.88165 10.6318C6.91572 12.6676 4.57872 16.3507 4.40907 17.1336C4.17198 18.226 5.11885 20.2719 6.14444 21.774C7.17034 23.2756 8.74854 19.0152 9.06407 18.1467C9.37959 17.2792 8.30824 15.1484 8.30824 15.1484L10.4058 16.4898C10.4058 16.4898 11.8779 12.9653 12.1691 11.7272C12.1706 11.7213 12.1718 11.7154 12.1732 11.7094C12.5541 12.3265 12.804 13.1195 12.9508 14.0238C13.0687 14.752 13.1219 15.5492 13.1263 16.3784C13.1299 17.0543 13.1017 17.7507 13.0509 18.4477C12.9704 19.5499 12.8334 20.6528 12.6756 21.6757C12.4971 22.8347 12.293 23.8906 12.1168 24.7252C11.9902 25.3229 11.8782 25.8033 11.7995 26.1304H14.0441C14.1323 25.8274 14.2134 25.5252 14.2901 25.2252C14.5694 24.1244 14.772 23.0477 14.9075 22.0096C15.0631 20.8212 15.1327 19.6839 15.1407 18.6155C15.1469 17.8045 15.1172 17.0341 15.0611 16.3121C14.9907 15.4149 14.8798 14.5943 14.7464 13.8649C14.5857 12.9878 14.3926 12.2495 14.1989 11.6693C14.78 11.8577 15.3326 12.0829 15.6897 12.3559C16.6794 13.1141 20.3605 15.9378 20.3605 15.9378L22.0373 12.7825C22.0373 12.7825 22.7477 18.1473 23.379 16.9637C24.0107 15.7791 25.0369 11.9917 23.7742 10.0195Z" fill="black"/>
</svg>

<svg width="25" height="27" fill="none" xmlns="http://www.w3.org/2000/svg"><path d="M23.774 10.02c-.919-1.436-5.212-2.112-8.461-2.197.618-.275 1.085-.491 1.085-.491l-1.154-1.66 2.492 1.033s.278-.807 4.065-.946c1.476-.054-2.063-4.183-5.07-3.313-.578.167-3.118 1.896-4.755 3.463C11.714 3.533 10.396.642 8.94.945c-1.894.395-4.26 1.07-3.55 1.895.38.442 1.814 2.518 3.26 4.039-2.335-.844-5.194-1.503-6.192-.861C.943 6.99.587 9.944.705 10.963.824 11.984 2.93 8.481 2.93 8.481l.311 2.718s3.56-.174 4.515-.39c.302-.069.704-.128 1.126-.177-1.966 2.036-4.303 5.719-4.473 6.502-.237 1.092.71 3.138 1.735 4.64 1.026 1.502 2.605-2.759 2.92-3.627.316-.868-.756-2.999-.756-2.999l2.098 1.342s1.472-3.525 1.763-4.763l.004-.018c.381.617.631 1.41.778 2.315.118.728.17 1.525.175 2.354.004.676-.024 1.373-.075 2.07a40.967 40.967 0 01-.375 3.228 56.67 56.67 0 01-.877 4.454h2.245a27.631 27.631 0 001.017-9.818 24.15 24.15 0 00-.315-2.447 16.313 16.313 0 00-.547-2.196c.581.189 1.134.414 1.49.687l4.671 3.582 1.677-3.155s.71 5.364 1.342 4.18c.632-1.184 1.658-4.971.395-6.944z" fill="#000"/></svg>
